!!!!SEGMENT: pl-wn--mus-iii-65-947-cim--007_sowinski-wojciech--swiety-wojciech-meczennik-no-6-aria-matki.krn
!!!cenid: 18xx:3600
!!!COM: Sowiński, Wojciech
!!!COM-rismID: pe30008543
!!!CDT: ~1803-1880/03/05
!!!CNT:
!!!GTL: Święty Wojciech męczennik
!!!OTL: [No. 6.] Aria matki
!!!PDT: 1877
!!!AGN:
!!!SMS-siglum: PL-Wn
!!!SMS-shelfmark: Mus.III.65.947 Cim.
!!!SMS-shelfwork: 007 G
!!!SMS-variant:
!!!SMS-altvar:
!!!NIFC-rismSourceID:
!!!NIFC-rismChildID:
!!!NIFC-islandoraID: none
!!!URL-pdf-islandora:
!!!URL-scan: https://polona.pl/item/swiety-wojciech-meczennik-oratorjo-w-trzech-czesciach-dzielo-66-spiew-z-fortepianem,MTkzODI1Mzc/242/#item @EN{Scan on Polona} @PL{Skany w portalu Polona}
!!!ONB-nifc: UWAGA: oratorium zawiera w źródle 28 numerów podzielonych na 30 plików (rozdzielenie w No. 6 - osobno Recitativo oraz Aria matki i No. 10 - osobno Recitativo, arja i chór oraz Sen). Polecam widok miniatur na Polonie. Uwaga co do obsady: prosimy umieszczać tylko partie występujące w danym numerze (nie całą obsadę oratorium)
!!!OMD:
!!!AIN: 1 piano 1 soprn
!!!key: B-
**kern	**kern	**dynam	**kern	**text	**dynam
*part2	*part2	*part2	*part1	*part1	*part1
*staff3	*staff2	*	*staff1	*staff1	*
*I"PIANO	*I"PIANO	*	*I"[CHANT]	*	*
*Ipiano	*Ipiano	*	*Isoprn	*	*
*ICklav	*ICklav	*	*ICvox	*	*
*clefF4	*clefG2	*	*clefG2	*	*
*k[b-e-]	*k[b-e-]	*	*k[b-e-]	*	*
*B-:	*B-:	*	*B-:	*	*
*M3/4	*M3/4	*	*M3/4	*	*
=1	=1	=1	=1	=1	=1
*^	*	*	*	*	*
*	*	*	*	*xywh-#55:283,672,1860,236	*	*
*xywh-#55:118,826,2029,467	*xywh-#55:118,826,2029,467	*xywh-#55:118,826,2029,467	*	*	*	*
!	!	!LO:TX:a:t=Con lagrime.	!	!	!	!
(8D/L	2.BB-\	8r	p	2.r	.	.
!	!	!LO:TX:b:i:t=cor anglais	!	!	!	!
8F/	.	(8d/L	.	.	.	.
8B-/	.	8e-/	.	.	.	.
8F/	.	8f/	.	.	.	.
8D/	.	8g/	.	.	.	.
8F/J)	.	8a/J	.	.	.	.
=2	=2	=2	=2	=2	=2	=2
(8D/L	2.BB-\	8b-\L	.	2.r	.	.
8F/	.	8cc\J	.	.	.	.
8B-/	.	4dd\	.	.	.	.
8F/	.	.	.	.	.	.
8D/	.	8cc\L	.	.	.	.
8F/J)	.	8b-\J)	.	.	.	.
=3	=3	=3	=3	=3	=3	=3
(8E-/L	2.BB-\	(4aSsS\	.	2.r	.	.
8F/	.	.	.	.	.	.
8B-/	.	4cc\	.	.	.	.
8F/	.	.	.	.	.	.
8E-/	.	8b-\L	.	.	.	.
8F/J)	.	8a\J)	.	.	.	.
=4	=4	=4	=4	=4	=4	=4
8E-/L	2.BB-\	(4g\	.	2.r	.	.
8G/	.	.	.	.	.	.
8B-/	.	4b-^<\	.	.	.	.
8G/	.	.	.	.	.	.
8E-/	.	8a\L	.	.	.	.
8G/J	.	8g\J)	.	.	.	.
=5	=5	=5	=5	=5	=5	=5
8D/L	2.BB-\	(2f/	>	2.r	.	.
8F/	.	.	.	.	.	.
8B-/	.	.	.	.	.	.
8F/	.	.	.	.	.	.
8D/	.	4d/)	]	.	.	.
8F/J	.	.	.	.	.	.
=6	=6	=6	=6	=6	=6	=6
*	*^	*	*	*	*	*
*	*	*xywh-#55:118,826,2029,467	*	*	*	*	*
!	!	!	!LO:TX:a:t=fl.	!	!	!	!
8D/L	2.BB-\	4ryy	(2dd\ 2ff	pp	2.r	.	.
8F/J	.	.	.	.	.	.	.
2B-/	.	8B-\L	.	.	.	.	.
.	.	8F\	.	.	.	.	.
.	.	8D\	4b-\) 4dd	.	.	.	.
.	.	8F\J	.	.	.	.	.
*v	*v	*v	*	*	*	*	*
=7	=7	=7	=7	=7	=7
2BB-;>\ 2F 2B-	2dd;>\ 2ff	.	4r	.	.
.	.	.	4r	.	.
4r	4r	.	4f/	Mój	.
!!LO:LB:g=original
=8	=8	=8	=8	=8	=8
*	*	*	*xywh-#55:137,1263,2011,277	*	*
*xywh-#55:126,1425,2042,479	*xywh-#55:126,1425,2042,479	*	*	*	*
4F\	8r	p	(4ff\	syn-	.
.	8e-/L 8f 8a	.	.	.	.
4r	8e-/ 8f 8a	.	4a\)	.	.
.	8e-/J 8f 8a	.	.	.	.
4B-\	8r	.	4b-\	-ku,	.
.	8d/ 8f 8b-	.	.	.	.
=9	=9	=9	=9	=9	=9
8A\	8r	.	4.cc\	oc-	.
8r	8e-/ 8f 8cc	.	.	.	.
8F\	8r	.	.	.	.
8r	8e-/ 8f 8cc	.	(16dd\LL	-knij	.
.	.	.	16ee-\JJ)	.	.
8B-\	8r	.	4dd\	się,	.
8r	8d/ 8f 8b-	.	.	.	.
=10	=10	=10	=10	=10	=10
(4e-\	8r	.	4cc\	mój	.
.	8g/ 8cc	.	.	.	.
4d\	8r	.	4bn\	syn-	.
.	8g/ 8bn	.	.	.	.
8c\L	8r	.	4cc\	-ku	.
8B-X\J)	8g/ 8cc	.	.	.	.
=11	=11	=11	=11	=11	=11
4A\	8r	.	4.ff\	oc-	.
.	8f\ 8cc	.	.	.	.
4F\	(8f\L 8a	.	.	.	.
.	8cc\J	.	8een\	-knij	.
4A\	8f\L) 8cc 8ff	.	4ee-X\	się,	.
.	8f\J 8cc 8ff	.	.	.	.
=12	=12	=12	=12	=12	=12
*^	*	*	*	*	*
*	*xywh-#55:126,1425,2042,479	*xywh-#55:126,1425,2042,479	*	*	*	*
8c/L	4c\	4ee-\	.	4ee-\	daj	.
8e-/J 8g	.	.	.	.	.	.
8c/L	4c\	8ee-\ 8eee-	pp	4ee-\	mi	.
8g/J	.	8r	.	.	.	.
8B-/L	4B-\	8ee-\ 8eee-	.	4ee-\	choć	.
8e-/J 8g	.	8r	.	.	.	.
=13	=13	=13	=13	=13	=13	=13
8r	2A\	(>(>4ee-\ 4eee-	.	4ee-\	zna-	.
8d/L 8f#X	.	.	.	.	.	.
8d/ 8f#	.	(>8.dd\L)) 8.ddd	.	4dd\	-czek	.
8d/J 8f#	.	.	.	.	.	.
.	.	16aa\Jk	.	.	.	.
8G/L	4G\	4bb-\)	.	8r	.	.
8d/J 8g	.	.	.	8b-\	choć	.
!!LO:LB:g=original
=14	=14	=14	=14	=14	=14	=14
*	*	*	*	*xywh-#55:175,1879,1947,282	*	*
*xywh-#55:85,2079,2065,495	*xywh-#55:85,2079,2065,495	*xywh-#55:85,2079,2065,495	*	*	*	*
8r	2B-\	4r	.	2dd-X\	zna-	.
8d-X/L 8fn	.	.	.	.	.	.
8d-/ 8f	.	2dd-X\ 2ddd-X	.	.	.	.
8d-/J 8f	.	.	.	.	.	.
8A-X/L	4ryy	.	.	4dd-\	-czek	.
8d-/J 8f	.	.	.	.	.	.
=15	=15	=15	=15	=15	=15	=15
8r	2G\	4dd-X\ 4ddd-X	.	4dd-X\	ży-	.
!LO:SIC:v:n=2:s=8d-	!	!	!	!	!	!
8B-X/L 8d 8f	.	.	.	.	.	.
8B-/ 8c 8en	.	8.cc\L 8.ccc	.	4cc\	-cia!	.
8B-/J 8c 8e	.	.	.	.	.	.
.	.	16gg\Jk	p	.	.	.
8F/L	4F\	4aan\	.	4r	.	.
8c/J 8f	.	.	.	.	.	.
*v	*v	*	*	*	*	*
=16	=16	=16	=16	=16	=16
!	!LO:TX:a:t=Clar.	!	!	!	!
(8F\L	4ff\	>	2.r	.	.
8f\	.	.	.	.	.
8e-\	4a\	.	.	.	.
8f\	.	.	.	.	.
8d\	4b-\	.	.	.	.
8f\J)	.	]	.	.	.
=17	=17	=17	=17	=17	=17
8A\L 8e-	(4.cc\	<	2.r	.	.
8f\	.	.	.	.	.
8F\	.	.	.	.	.
8f\	16dd\LL	[ >	.	.	.
.	16ee-\JJ	.	.	.	.
8B-\ 8d	4dd\)	.	.	.	.
8f\J	.	]	.	.	.
=18	=18	=18	=18	=18	=18
.	8qdd/	.	.	.	.
*^	*	*	*	*	*
*	*xywh-#55:85,2079,2065,495	*xywh-#55:85,2079,2065,495	*	*	*	*
2B-/	8B-\L	2ddd\	.	4dd\	Cha-	.
.	8d\ 8f	.	.	.	.	.
.	8d\ 8f	.	.	4dd\	-ty	.
.	8d\ 8f	.	.	.	.	.
4A-X/	8A-\	4ccc\	.	4cc\	mej	.
.	8d\J 8f	.	.	.	.	.
=19	=19	=19	=19	=19	=19	=19
*	*	*8va	*	*	*	*
2G/	8G\L	4bbn\	<	4bn\	oz-	.
.	8d\ 8f	.	[	.	.	.
.	8d\ 8f	8.ggg\L	>	(8.gg\L	-do-	.
.	8d\ 8f	.	.	.	.	.
.	.	16fff\Jk	.	16ff\Jk)	.	.
4c/	8c\	4eee-\	.	4ee-\	-bo!	.
.	8e-\J	.	]	.	.	.
!!LO:LB:g=original
=20	=20	=20	=20	=20	=20	=20
*	*	*	*	*xywh-#55:142,2533,2034,274	*	*
*xywh-#55:88,2705,2057,513	*xywh-#55:88,2705,2057,513	*xywh-#55:88,2705,2057,513	*	*	*	*
!	!	!	!	!	!	!LO:DY:a:rj
4c/	8c\L	8r	.	4ee-\	Gdy	p
.	8e-\ 8g	8ee-\ 8eee-	.	.	.	.
4c-X/	8c-\	8r	.	4ee-\	śmierć	.
.	8e-\ 8g	8ee-\ 8eee-	.	.	.	.
4B-/	8B-\	8r	.	4ee-\	mi	.
.	8e-\J 8g	8ee-\ 8eee-	.	.	.	.
=21	=21	=21	=21	=21	=21	=21
4A/	8A\L	4.dd\ 4.ddd	.	(4.dd\	wy-	.
.	8d\ 8f#X	.	.	.	.	.
4F#X/	8F#\	.	.	.	.	.
.	8d\ 8f#	8aa\	.	8a/)	.	.
4G/	8G\	4bb-\	.	4b-\	-drze	.
.	8d\J 8g	.	.	.	.	.
*	*	*X8va	*	*	*	*
*v	*v	*	*	*	*	*
=22	=22	=22	=22	=22	=22
!	!LO:TX:a:t=loco.	!	!	!	!
4G\	8r	.	4dd\	gdy	.
.	8d/ 8b- 8dd	.	.	.	.
4En\	8r	.	4dd\	śmierć	.
.	8d/ 8b- 8dd	.	.	.	.
4E\	8r	.	4cc\	mi	.
.	8c/ 8b- 8cc	.	.	.	.
=23	=23	=23	=23	=23	=23
2F^\	8r	>	4.cc\	wy-	.
.	8c/L 8f 8b- 8cc	.	.	.	.
.	8c/ 8f 8a 8cc	.	.	.	.
.	8c/J 8f 8a 8cc	]	(16dd\LL	-drze	.
.	.	.	16ee-\JJ)	.	.
!	!	!LO:HP:b:t=dim.	!	!	!
4B-\	8d/L 8f 8b-	>	8dd\	du-	.
.	8d/J 8f 8b-	.	8b-\	-szę	.
=24	=24	=24	=24	=24	=24
*^	*	*	*	*	*
*	*	*8va	*	*	*	*
*	*xywh-#55:88,2705,2057,513	*	*	*	*	*
!	!	!LO:TX:b:t=a tempo.	!	!	!	!LO:DY:a:rj
4A/	8A\L	4fff\	.	2.ff\	twą	f
.	8e-\ 8f	.	.	.	.	.
4F/	8F\	4aa\	.	.	.	.
.	8e-\ 8f	.	.	.	.	.
!	!	!	!LO:HP:b:t=cres.	!	!	!
4B-/	8B-\	4bb-\	<	.	.	.
.	8d\J 8f	.	.	.	.	.
=25	=25	=25	=25	=25	=25	=25
2F/	8F\L	4.ccc\	.	4ff\	du-	.
.	8e-\ 8f	.	.	.	.	.
.	8e-\ 8f	.	.	4a/	-szę	.
.	8e-\J 8f	16ddd\LL	.	.	.	.
.	.	16eee-\JJ	.	.	.	.
4ryy	8B-\L	8ddd\L	.	4b-/	z_po-	.
.	8d\J 8f	8bb-\J	.	.	.	.
!!LO:PB:g=original
=26	=26	=26	=26	=26	=26	=26
*	*	*	*	*xywh-#56:353,132,1908,280	*	*
*xywh-#56:328,326,2000,453	*xywh-#56:328,326,2000,453	*xywh-#56:328,326,2000,453	*	*	*	*
4A/	8A\L	4fff\	.	(4.cc\	-wi-	.
.	8e-\J 8f	.	.	.	.	.
*	*	*X8va	*	*	*	*
4F/	8F\L	(8a\L	.	.	.	.
.	8e-\J [>8f	16b-\L	.	16dd\LL	.	.
.	.	16cc\JJ	.	16ee-\JJ	.	.
4ryy	8B-\L 8d 8f]	16b-\LL	.	8dd\)	.	.
.	.	16f\	.	.	.	.
.	8F\J	16b-\	.	8b-\	-cia	.
.	.	16dd\JJ)	.	.	.	.
=27	=27	=27	=27	=27	=27	=27
!	!	!	!	!	!	!LO:DY:a
!	!	!	!	!	!	!LO:HP:a
4D/	8D\L	(4ff\	f	4ff\	wy-	f <
.	8B-\J 8d	.	.	.	.	.
4D^/	8D\L	4f#X\ 4ff#X	.	4ff#X\	-drze	.
.	8B-\J 8d	.	.	.	.	.
4E-^/	8E-\L	4g\) 4gg	.	4gg\	z po-	[
.	8B-\J 8e-	.	.	.	.	.
*v	*v	*	*	*	*	*
=28	=28	=28	=28	=28	=28
2En\ 2B- 2d-X 2en	2g\ 2b- 2dd-X 2gg	sf	(8.ggSSS\L	-wi-	.
.	.	.	16aan\Jk)	.	.
.	.	.	4bb-\	-cia,	.
!	!	!	!	!	!LO:DY:a:rj
4r	4r	.	8b-\	pój-	p
.	.	.	8cc\	-dę	.
=29	=29	=29	=29	=29	=29
!	!	!	!LO:TX:a:i:t=ritard.	!	!
4F\	8ryy	p	2dd\	w_grób	.
!	!LO:TX:b:t=colla voce	!	!	!	!
.	8dn/L 8b- 8ddn	.	.	.	.
4r	8d/ 8b- 8dd	.	.	.	.
.	8d/J 8b- 8dd	.	.	.	.
4F#X\	8r	.	8dd\	pój-	.
.	8d/ 8b- 8dd	.	8dd\	-dę	.
=30	=30	=30	=30	=30	=30
8G\	8r	.	(4dd\	w_grób	.
8r	8d/ 8b- 8dd	.	.	.	.
8E-\	8r	.	8cc\)	.	.
8r	8g-X/ 8b- 8cc	.	(16dd\LL	za	.
.	.	.	16ee-\JJ)	.	.
!	!	!	!	!	!LO:DY:a
8F\	8r	.	(8.dd\L	to-	pp
8r	8c/ 8f 8a 8cc	.	.	.	.
.	.	.	16cc\Jk)	.	.
!!LO:LB:g=original
=31	=31	=31	=31	=31	=31
*^	*	*	*	*	*
*	*	*	*	*xywh-#56:321,711,1968,293	*	*
*xywh-#56:337,879,2029,537	*xywh-#56:337,879,2029,537	*xywh-#56:337,879,2029,537	*	*	*	*
8D/L	2.BB-\	(8d\L 8f 8b-	.	2.b-\	-bą!	.
8F/	.	8dd\	.	.	.	.
8B-/	.	8ee-\	.	.	.	.
8F/	.	8ff\	.	.	.	.
8D/	.	8gg\	.	.	.	.
8F/J	.	8aa\J	.	.	.	.
=32	=32	=32	=32	=32	=32	=32
8D/L	2.BB-\	8bb-\L	.	2.r	.	.
8F/	.	8ccc\J	.	.	.	.
8B-/	.	4ddd\)	.	.	.	.
8F/	.	.	.	.	.	.
8D/	.	(8ccc\L	.	.	.	.
8F/J	.	8bb-\J)	.	.	.	.
=33	=33	=33	=33	=33	=33	=33
8E-/L	2.BB-\	(4aaSsS\	.	2.r	.	.
8G/	.	.	.	.	.	.
8c/	.	4ccc\	.	.	.	.
8G/	.	.	.	.	.	.
8E-/	.	8bb-\L	.	.	.	.
8G/J	.	8gg\J)	.	.	.	.
=34	=34	=34	=34	=34	=34	=34
8D/L	2.BB-\	2ff\	.	2.r	.	.
8F/	.	.	.	.	.	.
8B-/	.	.	.	.	.	.
8F/	.	.	.	.	.	.
8D/	.	[4fff\	.	.	.	.
8F/J	.	.	.	.	.	.
=35	=35	=35	=35	=35	=35	=35
8D/L	2.BB-\	(16fff\LL]	>	2.r	.	.
.	.	16eeen\	.	.	.	.
8F/	.	16ggg\	.	.	.	.
.	.	16fff\JJ	.	.	.	.
8B-/	.	16eee-X\LL	.	.	.	.
.	.	16ddd\	.	.	.	.
8F/	.	16ccc\	.	.	.	.
.	.	16bb-\JJ	.	.	.	.
8D/	.	16aa\LL	.	.	.	.
.	.	16ccc\	.	.	.	.
8F/J	.	16bb-\	]	.	.	.
.	.	16gg\JJ)	.	.	.	.
=36	=36	=36	=36	=36	=36	=36
*	*	*8va	*	*	*	*
!LO:TX:b:t=fagotti	!	!	!	!	!	!
8BB-/L	2.BB-\	4fff\	<	2.r	.	.
8D/	.	.	.	.	.	.
8E-/	.	2fffTT\	.	.	.	.
8F/	.	.	.	.	.	.
8G/	.	.	.	.	.	.
8A/J	.	.	[	.	.	.
!!LO:LB:g=original
=37	=37	=37	=37	=37	=37	=37
*	*	*	*	*xywh-#56:373,1339,1892,268	*	*
*xywh-#56:311,1524,2027,469	*xywh-#56:311,1524,2027,469	*xywh-#56:311,1524,2027,469	*	*	*	*
(8B-/L	2BB-\	[2.fffTTT\	.	2.r	.	.
8c/J	.	.	.	.	.	.
4d^</	.	.	.	.	.	.
8c/L	4ryy	.	.	.	.	.
8B-/J)	.	.	.	.	.	.
=38	=38	=38	=38	=38	=38	=38
(4A/	2BB-\	(2.fffTTT\]	.	2.r	.	.
4c^</	.	.	.	.	.	.
8B-/L	4ryy	.	.	.	.	.
8A/J)	.	.	.	.	.	.
=39	=39	=39	=39	=39	=39	=39
(8G/L	2BB-\	(2.gggTTT\)	.	2.r	.	.
8A/J	.	.	.	.	.	.
4B-^</	.	.	.	.	.	.
8A/L	4ryy	.	.	.	.	.
8G/J)	.	.	.	.	.	.
=40	=40	=40	=40	=40	=40	=40
8D/L	2BB-\	2.fffTTT\)	.	4r	.	.
8F/	.	.	.	.	.	.
8B-/	.	.	.	4r	.	.
8F/	.	.	.	.	.	.
8D/	4ryy	.	.	4f/	O	.
8F/J	.	.	.	.	.	.
=41	=41	=41	=41	=41	=41	=41
8E-/L	2BB-\	4ff\ 4fff	.	4.f/	zbudź	.
8F/	.	.	.	.	.	.
*	*	*X8va	*	*	*	*
8c/	.	4a\ 4aa	.	.	.	.
8F/	.	.	.	8f/	się	.
8D/	4ryy	4b-\ 4bb-	.	8f/	syn-	.
8F/J	.	.	.	8f/	-ku	.
=42	=42	=42	=42	=42	=42	=42
8E-/L	2BB-\	(4.cc\ 4.ccc	.	2.ff\	mój!	.
8F/	.	.	.	.	.	.
8c/	.	.	.	.	.	.
8F/	.	16dd\LL 16ddd	.	.	.	.
.	.	16ee-\JJ 16eee-	.	.	.	.
8D/	4ryy	4dd\) 4ddd	.	.	.	.
8F/J	.	.	.	.	.	.
*v	*v	*	*	*	*	*
=43	=43	=43	=43	=43	=43
4FF/	8r	p	4gg\	daj	.
.	8e-/L 8f 8a	.	.	.	.
!	!	!	!	!	!LO:HP:a
4r	8e-/ 8f 8a	.	4a\	zna-	<
.	8e-/J 8f 8a	.	.	.	.
4r	8d/L 8f 8b-	.	4b-\	-czek	[
.	8d/J 8f 8b-	.	.	.	.
!!LO:LB:g=original
=44	=44	=44	=44	=44	=44
*	*	*	*xywh-#56:305,1938,1986,273	*	*
*xywh-#56:309,2123,1965,441	*xywh-#56:309,2123,1965,441	*	*	*	*
(>2e-^\	8r	.	(4.cc\	ży-	.
.	8f/L 8a 8cc	.	.	.	.
.	8f/ 8a 8cc	.	.	.	.
.	8f/J 8a 8cc	.	16dd\LL	.	.
.	.	.	16ee-\JJ)	.	.
4d\)	8f/L 8b-	.	4dd\	-cia	.
.	8f/J 8b-	.	.	.	.
=45	=45	=45	=45	=45	=45
4e-\	8r	.	4cc\	daj	.
.	8g/ 8cc	.	.	.	.
4d\	8r	.	4bn\	zna-	.
.	8g/ 8bn	.	.	.	.
4c\	8r	.	4cc\	-czek	.
.	8g/ 8cc	.	.	.	.
=46	=46	=46	=46	=46	=46
4Bn\	8r	.	(>4.gg\	ży-	.
.	8g/ 8dd	.	.	.	.
4G\	8r	.	.	.	.
.	8g\ 8bn 8ff	.	8ff\)	.	.
4c\	8r	.	4ee-\	-cia!	.
.	8g\ 8cc 8ee-	.	.	.	.
=47	=47	=47	=47	=47	=47
*^	*	*	*	*	*
*	*	*	*	*	*	*
*	*xywh-#56:309,2123,1965,441	*xywh-#56:309,2123,1965,441	*	*	*	*
4ryy	8c\L	8r	.	4ee-\	Gdy	.
*	*	*8va	*	*	*	*
.	8e-\J 8g	8ee-\ 8eee-	.	.	.	.
4c-X/	8c-\L	8r	.	4ee-\	śmierć	.
.	8e-\J 8g	8ee-\ 8eee-	.	.	.	.
4B-/	8B-\L	8r	.	4ee-\	mi	.
.	8e-\J 8g	8ee-\ 8eee-	.	.	.	.
=48	=48	=48	=48	=48	=48	=48
4A/	8A\L	(4ee-\ 4eee-	.	(4ee-\	wy-	.
.	8d\J 8f#X	.	.	.	.	.
4F#X/	8F#\L	8.dd\L 8.ddd	.	8.dd\L	.	.
.	8d\J 8f#	.	.	.	.	.
.	.	16aa\Jk)	.	16a\Jk)	.	.
!	!	!LO:N:vis=8	!	!	!	!
4G/	8G\L	(16bb-/LL	.	4b-\	-drze	.
!	!	!LO:N:vis=8	!	!	!	!
.	.	16dd/	.	.	.	.
!	!	!LO:N:vis=8	!	!	!	!
.	8d\J 8g	16gg/	.	.	.	.
!	!	!LO:N:vis=8	!	!	!	!
.	.	16bb-/JJ)	.	.	.	.
=49	=49	=49	=49	=49	=49	=49
!	!LO:N:vis=2	!	!	!	!	!
2F/	8F\L	2dd/ 2ddd	.	2dd\	du-	.
.	8B-\ 8d	.	.	.	.	.
.	8B-\ 8d	.	.	.	.	.
.	8B-\J 8d	.	.	.	.	.
4F/	8F\L	4dd-X/ 4ddd-X	.	4dd-X\	-szę	.
.	8B-\J 8d-X	.	.	.	.	.
*v	*v	*	*	*	*	*
!!LO:LB:g=original
=50	=50	=50	=50	=50	=50
*	*	*	*xywh-#56:280,2508,2022,312	*	*
*xywh-#56:273,2709,2029,457	*xywh-#56:273,2709,2029,457	*	*	*	*
8F\L	[4cc\ [4ccc	.	4cc\	twą	.
8A\J 8c	.	.	.	.	.
8F\L	8cc\L] 8aa 8ccc]	.	(8cc\L	du-	.
8E-\J 8A 8c	16bb-\L	.	16dd\L	.	.
.	16ccc\JJ	.	16ee-\JJ)	.	.
8D\L	4bb-\	.	4dd\	-szę	.
8B-\J 8d	.	.	.	.	.
=51	=51	=51	=51	=51	=51
!	!LO:TX:b:t=a tempo	!	!LO:TX:a:t=a tempo	!	!LO:DY:a:rj
8A\L	4fff\	f	2.ff\	twą	f
(8f\	.	.	.	.	.
8e-\	4aa\	.	.	.	.
8f\	.	.	.	.	.
8d\	4bb-\	.	.	.	.
8f\J)	.	.	.	.	.
=52	=52	=52	=52	=52	=52
*^	*	*	*	*	*
*	*xywh-#56:273,2709,2029,457	*xywh-#56:273,2709,2029,457	*	*	*	*
8e-/L	4A\	4.ccc\	.	4ff\	du-	.
8f/	.	.	.	.	.	.
!	!	!	!	!	!	!LO:HP:a
8F/	4F\	.	.	4a\	-szę	<
8f/J	.	16ddd\LL	.	.	.	.
.	.	16eee-\JJ	.	.	.	.
8d/L	4B-\	8ddd\L	.	4b-\	z_po-	[
8f/J	.	8bb-\J	.	.	.	.
*v	*v	*	*	*	*	*
=53	=53	=53	=53	=53	=53
!	!LO:N:vis=2.	!	!	!	!
8A\L	2ccc\	.	(4.cc\	-wi-	.
8f\	.	.	.	.	.
8F\	.	.	.	.	.
[8f\J	.	.	16dd\LL	.	.
.	.	.	16ee-\JJ)	.	.
8B-\L 8d 8f]	8bb-\L	.	4dd\	-cia,	.
8A-X\J	8ddd\J	.	.	.	.
=54	=54	=54	=54	=54	=54
8G\L	4ggg\	.	2.r	.	.
8g\	.	.	.	.	.
8f\	4bbn\	.	.	.	.
8g\	.	.	.	.	.
8e-\	4ccc\	.	.	.	.
8g\J	.	.	.	.	.
=55	=55	=55	=55	=55	=55
*^	*	*	*	*	*
*	*xywh-#56:273,2709,2029,457	*xywh-#56:273,2709,2029,457	*	*	*	*
8d/L	4d\	4ddd\	.	2.r	.	.
8g/	.	.	.	.	.	.
8Bn/	4Bn\	8.ggg\L	.	.	.	.
8g/	.	.	.	.	.	.
.	.	16fff\Jk	.	.	.	.
8e-/	4c\	4eee-\	.	.	.	.
8g/J	.	.	.	.	.	.
*v	*v	*	*	*	*	*
!!LO:PB:g=original
=56	=56	=56	=56	=56	=56
*	*	*	*xywh-#57:135,228,2154,274	*	*
*xywh-#57:135,447,1965,424	*xywh-#57:135,447,1965,424	*	*	*	*
!	!LO:N:vis=2.	!	!	!	!LO:HP:a:t=cres.
16B-\LL	2dd\ 2ddd	f	2dd\	syn-	<
16f\	.	.	.	.	.
16d\	.	.	.	.	.
16f\JJ	.	.	.	.	.
16B-\LL	.	.	.	.	.
16f\	.	.	.	.	.
16d\	.	.	.	.	.
16f\JJ	.	.	.	.	.
16G\LL	4een\ 4eeen	.	4een\	-ku	.
16en\	.	.	.	.	.
16B-\	.	.	.	.	.
16e\JJ	.	.	.	.	.
=57	=57	=57	=57	=57	=57
16A\LL	2ff\ 2fff	.	2ff\	mój!	.
16f\	.	.	.	.	.
16d\	.	.	.	.	.
16f\JJ	.	.	.	.	.
16A\LL	.	.	.	.	.
16f\	.	.	.	.	.
16d\	.	.	.	.	.
16f\JJ	.	.	.	.	.
16A\LL	8.een/L 8.eeen	.	8.een\	syn-	.
16f\	.	.	.	.	.
16d\	.	.	.	.	.
16f\JJ	16dd/Jk 16ddd	.	16dd\	-ku	.
*	*X8va	*	*	*	*
=58	=58	=58	=58	=58	=58
8A\L	2a\ 2cc#X 2aa	f	2aa\	mój	.
16AA\L	.	.	.	.	.
16BBn\JJ	.	.	.	.	.
16C#X\LL	.	.	.	.	.
16D\	.	.	.	.	.
16En\	.	.	.	.	.
16F\JJ	.	.	.	.	.
!	!LO:SIC:v:n=1:s=8.eeen	!	!	!	!
16G\LL	8.a\L 8.ee-	.	8a/	pój-	.
16A\	.	.	.	.	.
16Bn\	.	.	8a/	-dę	.
!	!LO:SIC:v:n=1:s=16een	!	!	!	!
16c#X\JJ	16a\Jk 16ee-	.	.	.	.
=59	=59	=59	=59	=59	=59
*^	*	*	*	*	*
*	*xywh-#57:135,447,1965,424	*xywh-#57:135,447,1965,424	*	*	*	*
8d/L	2D\	(<2a\ [>2ff	.	2.ff\	w_grób	.
16cn/L	.	.	.	.	.	.
16B-X/JJ	.	.	.	.	.	.
16A/LL	.	.	.	.	.	.
16G/	.	.	.	.	.	.
16F/	.	.	.	.	.	.
16E-/JJ	.	.	.	.	.	.
8D\	4ryy	8f\) 8ff]	.	.	.	.
8r	.	8r	.	.	.	.
*v	*v	*	*	*	*	*
=60	=60	=60	=60	=60	=60
8cn\L	4r	.	2ee-X\	pój-	.
8e-X\ 8g	.	.	.	.	.
*	*8va	*	*	*	*
8e-\ 8g	2ee-X\ 2eee-X	.	.	.	.
8e-\J 8g	.	.	.	.	.
8c-X\L	.	.	4ee-\	-dę	.
8e-\J 8g 8an	.	.	.	.	.
!!LO:LB:g=original
=61	=61	=61	=61	=61	=61
*^	*	*	*	*	*
*	*	*	*	*xywh-#57:139,810,1953,265	*	*
*xywh-#57:107,997,2002,452	*xywh-#57:107,997,2002,452	*xywh-#57:107,997,2002,452	*	*	*	*
2B-/	8B-\L	((4.ee-\ 4.eee-	.	(4.ee-\	w_grób	.
.	8e-\ 8gn	.	.	.	.	.
.	8e-\ 8g	.	.	.	.	.
.	8e-\J 8g	8dd\)) 8ddd	.	8dd\)	.	.
4ryy	8B-\L	4dd\ 4ddd	.	4dd\	za	.
.	8f\J 8a-X	.	.	.	.	.
=62	=62	=62	=62	=62	=62	=62
8ryy	2B-\	2dd/ 2ddd	.	(2dd\	to-	.
8f/L 8a-X	.	.	.	.	.	.
8en/ 8g	.	.	.	.	.	.
8e/J 8g	.	.	.	.	.	.
8B--/L	4ryy	4dd-X/ 4ddd-X	.	4dd-X\)	.	.
8e/J 8g	.	.	.	.	.	.
=63	=63	=63	=63	=63	=63	=63
8A-X/L	2A-\	4.dd-X/ 4.ddd-X	.	(4.dd-X\	-bą	.
8d-X/ 8f	.	.	.	.	.	.
8c/ 8e-X	.	.	.	.	.	.
8c/J 8e-	.	8cc/ 8ccc	.	8cc\)	.	.
8A-/L	4A-\	4cc/ 4ccc	.	4cc\	ach!	.
8c/J 8e-	.	.	.	.	.	.
=64	=64	=64	=64	=64	=64	=64
!	!	!	!LO:HP:t=cres	!	!	!
8A-X/L	4A-\	8r	<	(4cc\	pój-	.
8c/J 8e- 8f#X	.	8cc/ 8ccc	.	.	.	.
8G/L 8B-	4G\	8r	.	4bn\)	.	.
8d/J 8fn 8g	.	8bn/ 8bbn	.	.	.	.
8c/L	4c\	8r	.	4cc\	-dę	.
8e-/J 8g	.	8cc/ 8ccc	.	.	.	.
=65	=65	=65	=65	=65	=65	=65
!	!	!LO:TX:b:t=agitato.	!	!	!	!
4ryy	8Bn\L	8r	.	(4dd\	w_grób	.
.	8f\J 8g	8dd/ 8ddd	.	.	.	.
4c/	8c\L	8r	.	4ee-\)	.	.
.	8e-\J 8g	8ee-/ 8eee-	.	.	.	.
4A-X/	8A-\L	8r	.	4ff\	za	.
.	8c\J 8e- 8f	8ff/ 8fff	.	.	.	.
!!LO:LB:g=original
=66	=66	=66	=66	=66	=66	=66
*	*	*	*	*xywh-#57:106,1393,2028,313	*	*
*xywh-#57:89,1601,2014,490	*xywh-#57:89,1601,2014,490	*xywh-#57:89,1601,2014,490	*	*	*	*
!	!	!	!LO:DY:b:rj	!	!	!
16G\LL	2G/	2gg\ 2ggg	f	2gg\	to-	.
16g\	.	.	.	.	.	.
16Bn\	.	.	.	.	.	.
16g\JJ	.	.	.	.	.	.
16d\LL	.	.	.	.	.	.
16g\	.	.	.	.	.	.
16B\	.	.	.	.	.	.
16g\JJ	.	.	.	.	.	.
16G\LL	4ryy	4dd/ 4ddd	.	4dd\	-bą;	.
16g\	.	.	.	.	.	.
16B\	.	.	.	.	.	.
16g\JJ	.	.	.	.	.	.
*v	*v	*	*	*	*	*
*	*X8va	*	*	*	*
=67	=67	=67	=67	=67	=67
!	!LO:TX:a:t=loco	!	!	!	!
16G\LL 16B-X 16d-X	2en\ 2een	.	(2.een\	ach!	.
16en\	.	.	.	.	.
16G\ 16B- 16d-	.	.	.	.	.
16e\JJ	.	.	.	.	.
16G\LL 16B- 16d-	.	.	.	.	.
16e\	.	.	.	.	.
16G\ 16B- 16d-	.	.	.	.	.
16e\JJ	.	.	.	.	.
16G\LL 16B- 16d-	(16b-\LL	.	.	.	.
16e\	16a\	.	.	.	.
16G\ 16B- 16d-	16b-\	.	.	.	.
16e\JJ	16cc\JJ	.	.	.	.
=68	=68	=68	=68	=68	=68
!	!	!	!LO:N:vis=4	!	!
16G\LL 16B- 16d-X	8dd-X\)	.	8b-X\)	.	.
16en\	.	.	.	.	.
16G\ 16B- 16d-	8r	.	8r	.	.
16e\JJ	.	.	.	.	.
*	*clefF4	*	*	*	*
16G\LL 16B- 16d-	8D-X\	sf	4.b-\	pój-	.
16e\	.	.	.	.	.
16G\ 16B- 16d-	8r	.	.	.	.
16e\JJ	.	.	.	.	.
16G\LL 16B- 16d-	8BB-/	sf	.	.	.
16e\	.	.	.	.	.
16G\ 16B- 16d-	8r	.	8b-\	-dę	.
16e\JJ	.	.	.	.	.
=69	=69	=69	=69	=69	=69
16G-X\LL 16B- 16d-X	4GG-X/	.	[2b-\	w_grób	.
16en\	.	.	.	.	.
16G-\ 16B- 16d-	.	.	.	.	.
16e\JJ	.	.	.	.	.
*	*clefG2	*	*	*	*
16G-\LL 16B- 16d-	4een\ 4eeen	.	.	.	.
16e\	.	.	.	.	.
16G-\ 16B- 16d-	.	.	.	.	.
16e\JJ	.	.	.	.	.
16G-\LL 16B- 16d-	(16bb-\LL	.	8b-\]	.	.
16e\	16aa\	.	.	.	.
16G-\ 16B- 16d-	16bb-\	.	8b-\	za	.
16e\JJ	16ccc\JJ)	.	.	.	.
!!LO:LB:g=original
=70	=70	=70	=70	=70	=70
*	*	*	*xywh-#57:133,2025,1967,285	*	*
*xywh-#57:56,2208,2186,468	*xywh-#57:56,2208,2186,468	*	*	*	*
16G-X\LL 16B- 16d-X	8ddd-X\	.	4dd-X\	to-	.
16e-\	.	.	.	.	.
16G-\ 16B- 16d-	8r	.	.	.	.
16e-\JJ	.	.	.	.	.
*	*clefF4	*	*	*	*
16G-\LL 16B- 16d-	8D-X\	.	4cc\	-bą	.
16e-\	.	.	.	.	.
16G-\ 16B- 16d-	8r	.	.	.	.
16e-\JJ	.	.	.	.	.
16G-\LL 16B- 16d-	8GG-X/	.	4b-\	za	.
16e-\	.	.	.	.	.
16G-\ 16B- 16d-	8r	.	.	.	.
16e-\JJ	.	.	.	.	.
*	*clefG2	*	*	*	*
=71	=71	=71	=71	=71	=71
2F\ 2B- 2dn 2f	2f\ 2b- 2ddn 2ff	.	2ff\	to-	.
4r	4r	.	8ddn\	-bą	.
.	.	.	8b-\	za	.
=72	=72	=72	=72	=72	=72
4FF/ 4F	8r	pp	(4f/	to-	.
!	!LO:TX:b:i:t=colla voce	!	!	!	!
.	8B-/L 8f	.	.	.	.
!	!	!	!LO:N:vis=2..	!	!
4r	8B-/ 8f	.	4..dd\	.	.
.	8B-/J 8f	.	.	.	.
8FF/ 8F	8r	.	.	.	.
8r	8A/ 8c 8f	.	.	.	.
.	.	.	16cc\)	.	.
=73	=73	=73	=73	=73	=73
*^	*	*	*	*	*
*	*xywh-#57:56,2208,2186,468	*xywh-#57:56,2208,2186,468	*	*	*	*
8D/L	2.BB-\	8B-/ 8dn 8f	f	2b-\	-bą!	.
!	!	!LO:TX:b:t=a tempo	!	!	!	!
8F/	.	(8dd\L	.	.	.	.
8B-/	.	8ee-\	.	.	.	.
8F/	.	8ff\	.	.	.	.
8D/	.	8gg\	.	4r	.	.
8F/J	.	8aa\J	.	.	.	.
=74	=74	=74	=74	=74	=74	=74
8D/L	2.BB-\	8bb-\L	<	2.ryy	.	.
8F/	.	8aa\	.	.	.	.
8B-/	.	8bb-\	.	.	.	.
8F/	.	8ccc\	.	.	.	.
8D/	.	8ddd\	.	.	.	.
8F/J	.	8eee-\J)	[	.	.	.
*v	*v	*	*	*	*	*
!!LO:LB:g=original
=75	=75	=75	=75	=75	=75
*	*	*	*xywh-#57:105,2557,2039,318	*	*
*xywh-#57:91,2762,2014,501	*xywh-#57:91,2762,2014,501	*	*	*	*
!	!	!	!	!	!LO:DY:a
16FF\LL	4fff\	f	4ff\	Gdy	f
16f\	.	.	.	.	.
16e-\	.	.	.	.	.
16f\JJ	.	.	.	.	.
16e-\LL	4a\ 4aa	.	4a/	śmierć	.
16f\	.	.	.	.	.
16e-\	.	.	.	.	.
16f\JJ	.	.	.	.	.
!	!LO:TX:b:t=cres_ _ _ cen_ _ _ do.:ext=ud:problem=dynamics with extention lines	!LO:HP:t=cres_ _ _ cen_ _ _ do.:ext=ud	!	!	!
16d\LL	4b-\ 4bb-	<	4b-\	mi	.
16f\	.	.	.	.	.
16d\	.	.	.	.	.
16f\JJ	.	.	.	.	.
=76	=76	=76	=76	=76	=76
16F\LL 16A 16e-	4.cc\ 4.ccc	.	(4.cc\	wy-	.
16f\	.	.	.	.	.
16F\ 16c 16e-	.	.	.	.	.
16f\JJ	.	.	.	.	.
16B-\LL 16d	.	.	.	.	.
16f\	.	.	.	.	.
16B-\ 16d	8dd\ 8ddd	.	8dd\)	.	.
16f\JJ	.	.	.	.	.
16A\LL 16c	4ee-\ 4eee-	.	4ee-\	-drze	.
16f\	.	.	.	.	.
16A\ 16c	.	.	.	.	.
16f\JJ	.	.	.	.	.
=77	=77	=77	=77	=77	=77
*	*8va	*	*	*	*
16A-X\LL 16Bn 16d	4ff\ 4fff	.	(4ff\	du-	.
16f\	.	.	.	.	.
16A-\ 16B 16d	.	.	.	.	.
16f\JJ	.	.	.	.	.
16G\LL 16c	4gg\ 4ggg	.	4gg\)	.	.
16e-X\	.	[	.	.	.
16G\ 16c	.	.	.	.	.
16e-\JJ	.	.	.	.	.
16F\LL 16A- 16B	4aa-X\ 4aaa-X	.	4aa-X\	-szę	.
16d\	.	.	.	.	.
16F\ 16A- 16B	.	.	.	.	.
16d\JJ	.	.	.	.	.
=78	=78	=78	=78	=78	=78
!	!	!LO:DY:rj	!	!	!LO:DY:a:rj
16En\LL 16B-X	2gg\ 2ggg	f	(2.gg\	twą	f
16c\	.	.	.	.	.
16E\ 16B-	.	.	.	.	.
16c\JJ	.	.	.	.	.
16E\LL 16B-	.	.	.	.	.
16c#X\	.	.	.	.	.
16E\ 16B-	.	.	.	.	.
16c#\JJ	.	.	.	.	.
*	*X8va	*	*	*	*
!	!LO:TX:a:t=loco	!	!	!	!
16E\LL 16B-	4b-\ 4bb-	.	.	.	.
16c#\	.	.	.	.	.
16E\ 16B-	.	.	.	.	.
16c#\JJ	.	.	.	.	.
!!LO:PB:g=original
=79	=79	=79	=79	=79	=79
*	*	*	*xywh-#58:416,149,2051,292	*	*
*xywh-#58:416,338,2057,378	*xywh-#58:416,338,2057,378	*	*	*	*
16E-X\LL 16G-X 16A	4b-\ 4bb-	.	4gg\	.	.
16c\	.	.	.	.	.
16E-\ 16G- 16A	.	.	.	.	.
16c\JJ	.	.	.	.	.
16E-\LL 16G- 16A	4a\ 4aa	.	4cc\)	.	.
16c\	.	.	.	.	.
16E-\ 16G- 16A	.	.	.	.	.
16c\JJ	.	.	.	.	.
16E-\LL 16G- 16A	4gg-X\ 4ggg-X	.	4gg-X\	z_po-	.
16c\	.	.	.	.	.
16E-\ 16G- 16A	.	.	.	.	.
16c\JJ	.	.	.	.	.
=80	=80	=80	=80	=80	=80
*^	*	*	*	*	*
*	*xywh-#58:416,338,2057,378	*xywh-#58:416,338,2057,378	*	*	*	*
16D/LL	2BB-\	2ff\ 2fff	.	2.ff\	-wi-	.
16F/	.	.	.	.	.	.
16B-/	.	.	.	.	.	.
16d/JJ	.	.	.	.	.	.
16B-/LL	.	.	.	.	.	.
16d/	.	.	.	.	.	.
16B-/	.	.	.	.	.	.
16F/JJ	.	.	.	.	.	.
16D/LL	4D\	4ff\ 4fff	.	.	.	.
16F/	.	.	.	.	.	.
16B-/	.	.	.	.	.	.
16d/JJ	.	.	.	.	.	.
*v	*v	*	*	*	*	*
=81	=81	=81	=81	=81	=81
16G\LL	4een\ 4eeen	.	4een\	-cia,	.
16B-\	.	.	.	.	.
16d-X\	.	.	.	.	.
16en\JJ	.	.	.	.	.
16A\LL	4ee-X\ 4eee-X	.	4ee-X\	pój-	.
16c\	.	.	.	.	.
16e-X\	.	.	.	.	.
16f\JJ	.	.	.	.	.
16B-\LL	4dd\ 4ddd	.	4dd\	-dę	.
16dn\	.	.	.	.	.
16f\	.	.	.	.	.
16d\JJ	.	.	.	.	.
=82	=82	=82	=82	=82	=82
16E-/LL	2cc\ 2ccc	.	2cc\	w_grób	.
16G-X/	.	.	.	.	.
16B-/	.	.	.	.	.
16c/JJ	.	.	.	.	.
16B-/LL	.	.	.	.	.
16c/	.	.	.	.	.
16B-/	.	.	.	.	.
16G-/JJ	.	.	.	.	.
16En/LL	4ryy	.	8cc\	pój-	.
16Gn/	.	.	.	.	.
16B-/	.	.	8cc\	-dę	.
16c/JJ	.	.	.	.	.
!!LO:LB:g=original
=83	=83	=83	=83	=83	=83
*^	*	*	*	*	*
*	*	*	*	*xywh-#58:451,712,1915,264	*	*
*xywh-#58:410,867,2008,479	*xywh-#58:410,867,2008,479	*xywh-#58:410,867,2008,479	*	*	*	*
!	!	!LO:TX:a:i:t=rall&colon;	!	!	!	!
16F/LL	4F\	2cc\ 2ccc	.	[4cc\	w_grób	.
16B-/	.	.	.	.	.	.
16c/	.	.	.	.	.	.
16f/JJ	.	.	.	.	.	.
16F/LL	4F\	.	.	8cc\]	.	.
16A/	.	.	.	.	.	.
16c/	.	.	.	(16dd\LL	za	.
16f/JJ	.	.	.	16ee-\JJ)	.	.
4ryy	4F\	8r	.	(8dd\L	to-	.
.	.	8e-/ 8f 8a	pp	8cc\J)	.	.
=84	=84	=84	=84	=84	=84	=84
!	!	!LO:TX:a:t=a tempo	!	!	!	!
8D/L	2BB-\	8d\L 8f 8b-	f	2b-\	-bą	.
8F/	.	8d\ 8dd	.	.	.	.
8B-/	.	8e-\ 8ee-	.	.	.	.
8F/	.	8f\ 8ff	.	.	.	.
8D/	4ryy	8g\ 8gg	.	4r	.	.
8F/J	.	8a\J 8aa	.	.	.	.
=85	=85	=85	=85	=85	=85	=85
8D/L	2BB-\	8b-\L 8bb-	<	4r	.	.
8F/	.	8cc\ 8ccc	.	.	.	.
8B-/	.	8dd\ 8ddd	.	4r	.	.
8F/	.	8ee-\ 8eee-	.	.	.	.
!	!	!	!	!LO:N:vis=8	!	!
8D/	4ryy	8een\ 8eeen	.	8.ff\	pój-	.
8F/J	.	8ff\J 8fff	[	.	.	.
.	.	.	.	16ff\	-dę	.
*v	*v	*	*	*	*	*
=86	=86	=86	=86	=86	=86
2EE-/ 2E-	4gg-X\ 4ggg-X	.	[2.gg-X\	w_grób	.
!	!	!LO:DY:rj	!	!	!
.	16A/LL 16c 16g-X	f	.	.	.
.	16A/ 16c 16g-	.	.	.	.
.	16A/ 16c 16g-	.	.	.	.
.	16A/JJ 16c 16g-	.	.	.	.
4DD^>/ 4D	4A/ 4c 4g-	.	.	.	.
=87	=87	=87	=87	=87	=87
4DD-X^>/ 4D-X	4B-/ 4d-X 4g	.	4gg-\]	.	.
4DD-^>/ 4D-	16A-X/LL 16d- 16f	.	4.ff^\	pój-	.
.	16A-/ 16d- 16f	.	.	.	.
.	16A-/ 16d- 16f	.	.	.	.
.	16A-/JJ 16d- 16f	.	.	.	.
4FF/ 4F	4An/ 4c 4f	.	.	.	.
.	.	.	8ee-\	-dę	.
!!LO:LB:g=original
=88	=88	=88	=88	=88	=88
*^	*	*	*	*	*
*	*	*	*	*xywh-#58:410,1292,2006,281	*	*
*xywh-#58:421,1484,2021,462	*xywh-#58:421,1484,2021,462	*xywh-#58:421,1484,2021,462	*	*	*	*
8D/L	2.BB-\	8B-/ 8d 8f	.	2ddn\	w_grób	.
8F/	.	(8d'\L 8dd	.	.	.	.
8B-/	.	8e-'\ 8ee-	.	.	.	.
8F/	.	8f'\ 8ff	.	.	.	.
8D/	.	8g'\ 8gg	.	4r	.	.
8F/J	.	8a'\J 8aa	.	.	.	.
=89	=89	=89	=89	=89	=89	=89
8D/L	2.BB-\	8b-'\L 8bb-	.	4r	.	.
8F/	.	8cc'\ 8ccc	.	.	.	.
8B-/	.	8dd'\ 8ddd	.	4r	.	.
8F/	.	8ee-'\ 8eee-	.	.	.	.
!	!	!	!	!	!	!LO:DY:a:rj
8D/	.	8een'\ 8eeen	.	8.dd\	pój-	f
8F/J	.	8ff'\J) 8fff	.	.	.	.
.	.	.	.	16b-\	-dę	.
*v	*v	*	*	*	*	*
=90	=90	=90	=90	=90	=90
8En\ 8en	8gg\ 8bb- 8ccc 8ggg	sf	(4ggn\	w_grób	.
8r	8r	.	.	.	.
8E-X\ 8e-X	8ff\ 8aa 8ccc	sf	4cc\)	.	.
8r	8r	.	.	.	.
8D\ 8d	8ff\ 8bb- 8fff	sf	4ff\	za	.
8r	8r	.	.	.	.
=91	=91	=91	=91	=91	=91
!	!	!	!	!	!LO:DY:a
8GG/ 8G	8r	pp	(4b-\	to-	pp
8r	8d/ 8g 8b-	.	.	.	.
8EE-/ 8E-	8r	.	8cc\L	.	.
8r	8e-/ 8g 8cc	.	16dd\L	.	.
.	.	.	16ee-\JJ	.	.
!	!	!	!LO:TX:a:i:t=rall.	!	!
8FF/ 8F	8r	.	8dd\L	.	.
8r	8c/ 8e- 8f 8a	.	8cc\J)	.	.
=92	=92	=92	=92	=92	=92
*^	*	*	*	*	*
*	*xywh-#58:421,1484,2021,462	*	*	*	*	*
8D/L	2BB-\	8d\L 8b-	.	[2.b-\	-bą	.
8F/	.	8dd\	.	.	.	.
8B-/	.	8ee-\	.	.	.	.
8F/	.	8ff\	.	.	.	.
8D/	4ryy	8gg\	.	.	.	.
8F/J	.	8aa\J	.	.	.	.
=93	=93	=93	=93	=93	=93	=93
8D/L	2BB-\	8bb-\L	.	2b-\]	.	.
8F/	.	8aa\	.	.	.	.
8B-/	.	8bb-\	.	.	.	.
8F/	.	8ccc\	.	.	.	.
8D/	4ryy	8ddd\	.	4r	.	.
8F/J	.	8bb-\J	.	.	.	.
!!LO:LB:g=original
=94	=94	=94	=94	=94	=94	=94
*xywh-#58:443,1904,1986,458	*xywh-#58:443,1904,1986,458	*xywh-#58:443,1904,1986,458	*	*	*	*
(8BB-/L	2.BB-\	[2.bb-TT\	mf	2.ryy	.	.
8D/	.	.	.	.	.	.
8E-/	.	.	.	.	.	.
8F/	.	.	.	.	.	.
8G/	.	.	.	.	.	.
8A/J	.	.	.	.	.	.
=95	=95	=95	=95	=95	=95	=95
8B-/L	2.BB-\	2.bb-TTT\_	.	2.ryy	.	.
8A/	.	.	.	.	.	.
8B-/	.	.	.	.	.	.
8c/	.	.	.	.	.	.
8d/	.	.	.	.	.	.
8c/J	.	.	.	.	.	.
*v	*v	*	*	*	*	*
=96	=96	=96	=96	=96	=96
4.e-\)	2.bb-TTT\_	.	2.ryy	.	.
8B-\L	.	.	.	.	.
8A-X\	.	.	.	.	.
8G-X\J	.	.	.	.	.
=97	=97	=97	=97	=97	=97
(8F\L	2.bb-TTT\_	.	2.ryy	.	.
8E-\	.	.	.	.	.
8D\	.	.	.	.	.
8E-\	.	.	.	.	.
8F\	.	.	.	.	.
8G-X\J	.	.	.	.	.
=98	=98	=98	=98	=98	=98
8F/L	2.bb-TTT\_	.	2.ryy	.	.
8E-/	.	.	.	.	.
8D/	.	.	.	.	.
8E-/	.	.	.	.	.
8AAnX/	.	.	.	.	.
8BB-/J)	.	.	.	.	.
=99	=99	=99	=99	=99	=99
(8FF/L	2.bb-TTT\]	.	2.ryy	.	.
8GG-X/	.	.	.	.	.
8AA-X/	.	.	.	.	.
8GG-/	.	.	.	.	.
8FF/	.	.	.	.	.
8EE-/J)	.	.	.	.	.
.	32qqaan/LLL	.	.	.	.
.	32qqbb-/	.	.	.	.
.	32qqbbn/	.	.	.	.
.	32qqccc/JJJ	.	.	.	.
!!LO:LB:g=original
=100	=100	=100	=100	=100	=100
*	*^	*	*	*	*
*tremolo	*	*ped	*	*	*	*
*xywh-#58:393,2317,1999,501	*xywh-#58:393,2317,1999,501	*xywh-#58:393,2317,1999,501	*	*	*	*
!LO:TX:b:t=trem&colon;	!	!	!	!	!	!
16DD-X/LL	8ddd-X/	2.B-/ 2.d-X 2.g-X	f	2.ryy	.	.
16D-X/	.	.	.	.	.	.
16DD-/	8ryy	.	.	.	.	.
16D-/	.	.	.	.	.	.
16DD-/	2ryy	.	.	.	.	.
16D-/	.	.	.	.	.	.
16DD-/	.	.	.	.	.	.
16D-/	.	.	.	.	.	.
16DD-/	.	.	.	.	.	.
16D-/	.	.	.	.	.	.
16DD-/	.	.	.	.	.	.
16D-/JJ	.	.	.	.	.	.
*Xtremolo	*	*	*	*	*	*
*	*v	*v	*	*	*	*
=101	=101	=101	=101	=101	=101
8DD-X/L 8D-X	2A-X/ 2d-X 2g-X	.	2.ryy	.	.
8CC/J 8C	.	.	.	.	.
8DD-/L 8D-	.	.	.	.	.
*	*Xped	*	*	*	*
8DD-/ 8D-	.	.	.	.	.
8DD-/ 8D-	4A-/ 4d- 4f	.	.	.	.
8DD-/J 8D-	.	.	.	.	.
=102	=102	=102	=102	=102	=102
*tremolo	*ped	*	*	*	*
16GGG-X\LL	2.G-X</ 2.B- 2.d-X 2.g-X	f	2.ryy	.	.
16GG-X\	.	.	.	.	.
16GGG-\	.	.	.	.	.
16GG-\	.	.	.	.	.
16GGG-\	.	.	.	.	.
16GG-\	.	.	.	.	.
16GGG-\	.	.	.	.	.
16GG-\	.	.	.	.	.
16GGG-\	.	.	.	.	.
16GG-\	.	.	.	.	.
16GGG-\	.	.	.	.	.
16GG-\JJ	.	.	.	.	.
=103	=103	=103	=103	=103	=103
16GGG-X\LL	4G-X</ 4B- 4g-X	.	2.ryy	.	.
16GG-X\	.	.	.	.	.
16GGG-\	.	.	.	.	.
16GG-\	.	.	.	.	.
16GGG-\	4G-</ 4B- 4f	.	.	.	.
16GG-\	.	.	.	.	.
*	*Xped	*	*	*	*
16GGG-\	.	.	.	.	.
16GG-\	.	.	.	.	.
16GGG-\	4G-</ 4B- 4en	.	.	.	.
16GG-\	.	.	.	.	.
16GGG-\	.	.	.	.	.
16GG-\JJ	.	.	.	.	.
*Xtremolo	*	*	*	*	*
=104	=104	=104	=104	=104	=104
*	*ped	*	*	*	*
!	!LO:N:vis=4	!	!	!	!
2FFF\ 2FF	8F</ 8B- 8dn 8f	.	2.ryy	.	.
!	!LO:TX:b:t=dolce.	!	!	!	!
.	8b-\L	.	.	.	.
.	8ddn\	.	.	.	.
.	8b-\	.	.	.	.
4FF/ 4F	8dd\	.	.	.	.
.	8ggn\J	.	.	.	.
!!LO:LB:g=original
=105	=105	=105	=105	=105	=105
*xywh-#58:399,2751,1983,468	*xywh-#58:399,2751,1983,468	*	*	*	*
2.FF/ 2.F	(8ff\L	.	2.ryy	.	.
.	8ddn\	.	.	.	.
.	8ee-\	.	.	.	.
*	*Xped	*	*	*	*
.	8cc\	.	.	.	.
.	8a\	.	.	.	.
.	8ff\J)	.	.	.	.
=106	=106	=106	=106	=106	=106
4BB-\ 4D	(8b-\L	p	2.ryy	.	.
.	8aa-X\	.	.	.	.
[<2BB-\ [<2D [>2F [>2B-	8bb-\	.	.	.	.
.	8ccc-X\	.	.	.	.
.	8ff\	.	.	.	.
.	8gg-X\J	.	.	.	.
=107	=107	=107	=107	=107	=107
2.BB-\_< 2.D_< 2.F_> 2.B-_>	8aa-X\L	.	2.ryy	.	.
.	8dd\	.	.	.	.
.	8ee-\	.	.	.	.
.	8ff\	.	.	.	.
.	8a-X\	.	.	.	.
.	8b-\J	.	.	.	.
=108	=108	=108	=108	=108	=108
2.BB-\] 2.D] 2.F] 2.B-]	8cc-X\L	.	2.ryy	.	.
.	8f\	.	.	.	.
.	8g-X\	.	.	.	.
.	8a-X\	.	.	.	.
.	8d\	.	.	.	.
.	8e-\J	.	.	.	.
=109	=109	=109	=109	=109	=109
*^	*	*	*	*	*
*	*xywh-#58:399,2751,1983,468	*xywh-#58:399,2751,1983,468	*	*	*	*
4D/ 4F 4B-	2BB-\	8f/L	.	2.ryy	.	.
.	.	8A-X</	.	.	.	.
4ryy	.	8B-</J	.	.	.	.
.	.	4.c</)	pp	.	.	.
(>8F\L	4ryy	.	.	.	.	.
8E-\J)	.	.	.	.	.	.
*v	*v	*	*	*	*	*
=110	=110	=110	=110	=110	=110
2.BB-;<\ 2.D	2.B-<;>/	.	2.ryy	.	.
==	==	==	==	==	==
*-	*-	*-	*-	*-	*-
!!!system-decoration: s1{(s2,s3)}
!!!RDF**kern: < = below
!!!RDF**kern: > = above
!!!ENC: Anastazja Marusiak
!!!END: 2022-02-22
!!!ENC: Marta Chmielewska
!!!END: 2022-03-01
!!!YEC: Copyright 2022 Narodowy Instytut Fryderyka Chopina (https://polishscores.org)
!!!YEM: License CC-BY-4.0 (https://creativecommons.org/licenses/by/4.0)
!!!IIIF: https://polona.pl/iiif/item/MTkzODI1Mzc/manifest.js
!!!ENC-IIIF: Bartosz Żurakowski
!!!END-IIIF: 2022-09-05
